X: 503
P: Longways for as many as will
M: 3/4
L: 1/8
K: C
|:\
E2 G2 G2 | c2 e2 c2 | e2 c2 fe | dc BA G2 |\
E2 G2 G2 | c2 e2 c2 | e2 c2 fe | d6 :|\
|:\
d2 g2 B2 | A4 G2 | c2 c2 Bc | d2 d2 cd |
edcdef | g6 "^:S:"|\
e6 | dcde d2 | c2 cdcd | c6 :|

